icons/looker-icon.svg

<?xml version="1.0" encoding="UTF-8"?>
<svg width="256px" height="413px" viewBox="0 0 256 413" version="1.1" xmlns="http://www.w3.org/2000/svg" xmlns:xlink="http://www.w3.org/1999/xlink" preserveAspectRatio="xMidYMid">
    <g>
        <path d="M127.128486,0 C113.797782,0.0058471726 101.556004,7.36006381 95.2905253,19.126605 C89.0250469,30.8931461 89.7564532,45.1553578 97.1927396,56.2192339 L112.606279,40.8274339 C112.096845,39.2920176 111.839876,37.6841242 111.845385,36.066411 C111.845385,27.6618072 118.658663,20.8485297 127.063267,20.8485297 C135.467871,20.8485297 142.281148,27.6618072 142.281148,36.066411 C142.281148,44.4710148 135.467871,51.2842924 127.063267,51.2842924 C125.452814,51.2878362 123.852389,51.0308872 122.323984,50.5233983 L106.932184,65.9151983 C119.749817,74.6084738 136.686605,74.1479499 149.012895,64.7709924 C161.339185,55.3940349 166.302744,39.1943452 161.345227,24.5216568 C156.387711,9.84896827 142.61604,-0.0205786569 127.128486,0 L127.128486,0 Z" fill="#34A853"></path>
        <path d="M112.780303,105.112113 C112.803794,92.9288201 108.858278,81.0693768 101.540706,71.3284161 L81.5400617,91.3073204 C87.7949796,102.747737 85.5440645,116.967804 76.0616244,125.917131 L86.9315396,152.483203 C103.037113,142.110661 112.772753,124.268811 112.780303,105.112113 Z" fill="#FBBC04"></path>
        <path d="M56.8870939,133.786949 L56.3653379,133.786949 C44.0975407,133.788013 33.1858466,125.990585 29.2128405,114.383946 C25.2398344,102.777307 29.0843199,89.9287712 38.7794013,82.4118404 C48.4744826,74.8949096 61.8756692,74.3722813 72.126715,81.1113398 L91.9317006,61.3063543 C72.6737207,45.6936654 45.4778243,44.4893124 24.9151409,58.3385684 C4.35245741,72.1878245 -4.75374244,97.8421492 2.47549859,121.556363 C9.70473962,145.270576 31.5737,161.482171 56.3653379,161.50524 C60.1906548,161.507115 64.0066702,161.128427 67.7570091,160.374762 L56.8870939,133.786949 Z" fill="#EA4335"></path>
        <path d="M127.88938,156.76595 C115.371706,156.753269 102.919887,158.577095 90.9316684,162.179168 L106.780005,200.897806 C113.678715,199.188192 120.760254,198.326726 127.86764,198.332506 C169.050784,198.344513 204.491034,227.444917 212.516351,267.838552 C220.541668,308.232187 198.917134,348.670095 160.866351,364.424121 C122.815568,380.178148 78.9350487,366.861058 56.0581359,332.616375 C33.1812232,298.371692 37.6787581,252.735993 66.8004566,223.615929 C72.8771111,217.558264 79.8143655,212.430409 87.3880761,208.398047 L71.7136583,169.788108 C13.2865745,198.402523 -14.3767247,266.297107 7.41546106,327.59645 C29.2076468,388.895793 93.5203541,424.092503 156.898395,409.404661 C220.276436,394.716818 262.550912,334.818559 255.157557,270.182291 C247.764201,205.546024 193.055814,156.741054 127.998079,156.74421 L127.88938,156.76595 Z" fill="#4285F4"></path>
    </g>
</svg>

<svg xmlns="http://www.w3.org/2000/svg" viewBox="0 0 255.995 412.728">
  <path fill="#34a853" d="M127.128 0a36.088 36.088 0 0 0-29.935 56.22l15.413-15.393a14.957 14.957 0 0 1-.76-4.76c0-8.405 6.813-15.218 15.217-15.218 8.405 0 15.218 6.813 15.218 15.217 0 8.405-6.813 15.218-15.218 15.218-1.61.004-3.21-.253-4.739-.76l-15.392 15.391A36.066 36.066 0 1 0 127.128 0z"/>
  <path fill="#fbbc04" d="M112.78 105.112a56.068 56.068 0 0 0-11.24-33.784l-20 19.98c6.255 11.44 4.004 25.66-5.478 34.61l10.87 26.565a56.372 56.372 0 0 0 25.848-47.37z"/>
  <path fill="#ea4335" d="M56.887 133.787h-.522a28.697 28.697 0 1 1 15.762-52.676l19.805-19.805C72.674 45.694 45.478 44.49 24.915 58.34 4.352 72.188-4.754 97.842 2.475 121.556c7.23 23.715 29.099 39.926 53.89 39.95a57.667 57.667 0 0 0 11.392-1.131z"/>
  <path fill="#4285f4" d="M127.89 156.766a127.982 127.982 0 0 0-36.958 5.413l15.848 38.719a87.372 87.372 0 0 1 21.088-2.565c41.183.012 76.623 29.112 84.648 69.506 8.026 40.393-13.599 80.831-51.65 96.585-38.05 15.754-81.931 2.437-104.808-31.808-22.877-34.244-18.38-79.88 10.742-109a87.22 87.22 0 0 1 20.588-15.218l-15.674-38.61c-58.427 28.615-86.09 96.51-64.299 157.808 21.793 61.3 86.105 96.497 149.483 81.809 63.378-14.688 105.653-74.586 98.26-139.223-7.394-64.636-62.102-113.44-127.16-113.438z"/>
</svg>
